X: 0852
T: PERKINS' HAT JIG
B: Oliver Ditson "The Boston Collection of Instrumental Music" 1910 p.85 #2
F: http://conquest.imslp.info/files/imglnks/usimg/8/8f/IMSLP175643-PMLP309456-bostoncollection00bost_bw.pdf
%: 2012 John Chambers <jc:trillian.mit.edu>
M: 6/8
L: 1/8
K: C
|:\
gec c2c | Bcd G2G | A2A f2e | dec dBG |\
gec c2c | dBG G2F | EGc fdB | c3- c2z :|
|:\
efg a2a | def g3 | A2A f2e | dec B2G |\
efg a2a | b2b c'3 | egc f2e | dcB c3 :|

%%sep 1 1 500
%%sep 1 1 500
